packages/core/src/svgs/inj.svg

<svg width="24" height="24" viewBox="0 0 24 24" fill="none" xmlns="http://www.w3.org/2000/svg">
<g clip-path="url(#clip0_31_11815)">
<path d="M0 0H24V24H0V0Z" fill="url(#paint0_linear_31_11815)"/>
<path d="M6.80584 7.51263C6.89156 7.40549 6.97727 7.30263 7.07156 7.19977L7.0887 7.18691L7.1187 7.1612L7.12727 7.15263C7.43432 6.86851 7.79593 6.6498 8.19013 6.50977C8.68053 6.34044 9.20869 6.31254 9.7142 6.42926C10.2197 6.54597 10.6822 6.80259 11.0487 7.16977C12.2187 8.26263 12.1158 10.0283 11.1773 11.1983C10.003 12.9469 7.97584 15.3855 10.783 17.5712C11.2844 17.9612 11.6616 18.2869 13.2473 18.7455C12.2101 18.9383 11.2458 18.8741 10.1744 18.6041C9.41584 18.1755 8.22442 17.2583 7.81727 16.0198C7.20442 14.1426 8.89727 11.3398 9.71584 10.2598C10.8387 8.75977 9.02156 7.14406 7.68442 8.95263C6.98584 9.89548 5.76013 12.5569 6.18442 14.5369C6.43727 15.6555 6.76727 16.4741 8.0787 17.5969C7.83442 17.4512 7.5987 17.2883 7.37156 17.1083C6.05468 15.8925 5.26008 14.2137 5.1546 12.4245C5.04912 10.6353 5.64095 8.87478 6.80584 7.51263Z" fill="url(#paint1_linear_31_11815)"/>
<path d="M17.1944 16.4869C17.1086 16.594 17.0229 16.6969 16.9286 16.7998L16.9115 16.8126L16.8815 16.8383L16.8729 16.8469C16.5659 17.131 16.2043 17.3497 15.8101 17.4898C14.8544 17.8326 13.7872 17.6183 12.9515 16.8298C11.7815 15.7369 11.8886 13.9712 12.8229 12.8012C13.9972 11.0526 16.0244 8.61405 13.2172 6.42833C12.7158 6.03833 12.3386 5.71262 10.7529 5.25405C11.7748 5.06936 12.8252 5.1177 13.8258 5.39548C14.5844 5.82405 15.7758 6.74119 16.1829 7.97976C16.7958 9.8569 15.1029 12.6598 14.2844 13.7398C13.1615 15.2398 14.9786 16.8555 16.3158 15.0469C17.0144 14.104 18.2401 11.4426 17.8158 9.46262C17.5629 8.34405 17.2329 7.52548 15.9215 6.40262C16.1658 6.54833 16.4015 6.71119 16.6286 6.89119C17.9455 8.10703 18.7401 9.7858 18.8456 11.575C18.9511 13.3642 18.3593 15.1247 17.1944 16.4869Z" fill="url(#paint2_linear_31_11815)"/>
</g>
<defs>
<linearGradient id="paint0_linear_31_11815" x1="4.46571" y1="4.16143" x2="29.2071" y2="32.58" gradientUnits="userSpaceOnUse">
<stop stop-color="#1A1E21"/>
<stop offset="1" stop-color="#06060A"/>
</linearGradient>
<linearGradient id="paint1_linear_31_11815" x1="5.14299" y1="11.9998" x2="18.8573" y2="11.9998" gradientUnits="userSpaceOnUse">
<stop stop-color="#0082FA"/>
<stop offset="1" stop-color="#00F2FE"/>
</linearGradient>
<linearGradient id="paint2_linear_31_11815" x1="5.14293" y1="11.9998" x2="18.8572" y2="11.9998" gradientUnits="userSpaceOnUse">
<stop stop-color="#0082FA"/>
<stop offset="1" stop-color="#00F2FE"/>
</linearGradient>
<clipPath id="clip0_31_11815">
<rect width="24" height="24" fill="white"/>
</clipPath>
</defs>
</svg>

<svg xmlns="http://www.w3.org/2000/svg" width="24" height="24" fill="none" viewBox="0 0 24 24"><g clip-path="url(#a)"><path fill="url(#b)" d="M0 0h24v24H0z"/><path fill="url(#c)" d="M6.806 7.513c.086-.108.171-.21.266-.313l.017-.013.03-.026.008-.008A3.1 3.1 0 0 1 8.19 6.51a2.76 2.76 0 0 1 2.859.66c1.17 1.093 1.067 2.858.128 4.028-1.174 1.749-3.201 4.188-.394 6.373.501.39.879.716 2.464 1.174-1.037.193-2.001.13-3.073-.14-.758-.43-1.95-1.347-2.357-2.585-.613-1.877 1.08-4.68 1.899-5.76 1.123-1.5-.694-3.116-2.032-1.307-.698.942-1.924 3.604-1.5 5.584.253 1.118.583 1.937 1.895 3.06a6.5 6.5 0 0 1-.707-.489 6.93 6.93 0 0 1-.566-9.595"/><path fill="url(#d)" d="M17.194 16.487a6 6 0 0 1-.265.313l-.017.013-.03.025-.01.009a3.1 3.1 0 0 1-1.062.643c-.956.343-2.023.128-2.859-.66-1.17-1.093-1.062-2.859-.128-4.029 1.174-1.748 3.201-4.187.394-6.373-.501-.39-.878-.715-2.464-1.174a6.9 6.9 0 0 1 3.073.141c.758.43 1.95 1.346 2.357 2.585.613 1.877-1.08 4.68-1.899 5.76-1.123 1.5.695 3.115 2.032 1.307.698-.943 1.924-3.604 1.5-5.584-.253-1.119-.583-1.938-1.894-3.06q.366.218.707.488a6.93 6.93 0 0 1 .565 9.596"/></g><defs><linearGradient id="b" x1="4.466" x2="29.207" y1="4.161" y2="32.58" gradientUnits="userSpaceOnUse"><stop stop-color="#1A1E21"/><stop offset="1" stop-color="#06060A"/></linearGradient><linearGradient id="c" x1="5.143" x2="18.857" y1="12" y2="12" gradientUnits="userSpaceOnUse"><stop stop-color="#0082FA"/><stop offset="1" stop-color="#00F2FE"/></linearGradient><linearGradient id="d" x1="5.143" x2="18.857" y1="12" y2="12" gradientUnits="userSpaceOnUse"><stop stop-color="#0082FA"/><stop offset="1" stop-color="#00F2FE"/></linearGradient><clipPath id="a"><path fill="#fff" d="M0 0h24v24H0z"/></clipPath></defs></svg>
